X: 1
T: Kinsella's
M: 4/4
L: 1/8
R: reel
K: Dmin
DF~F2 AFEF | B,DFD A,DFD | DF~F2 AFEF | GE~E2 FD~D2 |
DF~F2 AFEF | B,D~D2 A,D~D2 | DFAF GABG | Ad~d2 ed^cd ||
K:Dmaj
[D2A2]FA dfed | DF~F2 EFGE | [D2A2]FA dfaf | gece dBAF |
D2FA dfed | DF~F2 GECE | DFEF D2dB | AF~F2 EFGE ||
